app/dist/common/images/xiamen-itg-ltd.svg

<svg height="18" viewBox="0 0 18 18" width="18" xmlns="http://www.w3.org/2000/svg"><path d="m0 0h18v18h-18z" fill="#f0f3fa"/><path d="m4 7h1v4h-1zm6 1v-1h-3v1h1v3h1v-3zm3 3a2 2 0 0 0 1.99-2.22h-1.99v.66h.9a1 1 0 1 1 -.17-1.13l.7-.71a2 2 0 0 0 -3.43 1.4c0 1.1.9 2 2 2z" fill="#d6001a"/></svg>

<!-- by TradingView --><svg width="18" height="18" viewBox="0 0 18 18" xmlns="http://www.w3.org/2000/svg"><path fill="#F0F3FA" d="M0 0h18v18H0z"/><path fill="#D6001A" d="M4 7h1v4H4zM10 8V7H7v1h1v3h1V8h1ZM13 11a2 2 0 0 0 1.99-2.22H13v.66h.9a1 1 0 1 1-.17-1.13l.7-.71A2 2 0 0 0 11 9c0 1.1.9 2 2 2Z"/></svg>
